X: 39249
T: Tagon Burn
R: jig
M: 6/8
K: Dmajor
A|:DFB AFA|def edB|AFD FAB|AFD E2F|
DFB AFA|def edB|AFD FAF|EFE D3:|
|:DFA d2e|fed fdB|AFD FAB|AFD E2F|
DFA d2e|fed edB|AFD FAF|EFE D3:|

